svg/file-icons/VirtualBox.svg

<svg version="1.1" xmlns="http://www.w3.org/2000/svg" width="440px" height="512px"><path d="M19.4693089,328.2514343l78.7203751,61.223877c-10.2117691,21.8680725,4.3747253,119.5524597,122.4592896,122.4652405c118.0904999,2.9127808,134.1277924-102.0535583,125.3724213-125.3835754l74.3599243-58.3114929l19.4178772-223.3192749c0.5483093-6.2766037-3.7005615-13.4497681-9.4689331-15.9742126L231.1235809,1.8847885c-5.7739563-2.5244451-15.157486-2.5129418-20.9429321,0.0341613L9.5175848,90.3853836c-5.837039,2.5701065-10.0176067,9.7206116-9.4692841,16.0142975L19.4693089,328.2514343z M31.1315346,143.0970306l160.356308,102.0561523l-1.4563904,167.6525116L39.8726273,304.9266357L31.1315346,143.0970306z M249.8134308,246.6038208l158.9056549-97.6727142l-8.7553711,154.5335541L248.3485107,412.8056946L249.8134308,246.6038208z M41.2258644,105.3491287l105.1644287-46.027092l20.7595215,14.2872314l-58.5281601,64.9690552l2.5203552,0.8401184l112.3887863-44.7215652l-38.4010773,47.9778214l74.3774261-28.7866898l-35.9951477,47.9872208l40.0364075,25.5631256l-41.2942505,23.640564L41.2258644,105.3491287z M237.4416351,105.3491287l35.995163-44.3595161l-107.9760437,40.7411842l33.5892029-35.9951324l-29.1344299-19.0313606l50.7221222-23.0913963l179.4117889,81.6985779l-112.1581726,66.6896591l-36.0609894-19.8677826l55.1674957-74.3774033l-69.5655365,27.5649185L237.4416351,105.3491287z"/></svg>

<svg xmlns="http://www.w3.org/2000/svg" width="440" height="512"><path d="m19.47 328.251 78.72 61.224c-10.212 21.868 4.374 119.553 122.459 122.466 118.09 2.912 134.128-102.054 125.372-125.384l74.36-58.312L439.8 104.926c.549-6.276-3.7-13.45-9.469-15.974L231.124 1.885c-5.774-2.525-15.158-2.513-20.943.034L9.518 90.385C3.68 92.955-.5 100.106.048 106.4L19.47 328.25zm11.662-185.154 160.356 102.056-1.457 167.653-150.158-107.88-8.741-161.829zm218.681 103.507L408.72 148.93l-8.755 154.534-151.615 109.34 1.464-166.201zM41.226 105.349 146.39 59.322l20.76 14.287-58.528 64.97 2.52.84 112.389-44.722-38.401 47.978 74.377-28.787-35.995 47.987 40.036 25.563-41.294 23.64L41.226 105.35zm196.216 0 35.995-44.36-107.976 40.742 33.589-35.995-29.134-19.032 50.722-23.091 179.411 81.698-112.158 66.69-36.06-19.868 55.167-74.377-69.566 27.565.01.028z"/></svg>
